autogermania/dist/img/svg/plus.svg

<svg xmlns="http://www.w3.org/2000/svg" width="14" height="14"><path fill-rule="evenodd" fill="#005CCB" d="M14 7.999H7.999v6h-2v-6H0v-2h5.999v-6h2v6H14v2z"/></svg>

<svg 
 xmlns="http://www.w3.org/2000/svg"
 xmlns:xlink="http://www.w3.org/1999/xlink"
 width="14px" height="14px">
<path fill-rule="evenodd"  fill="rgb(0, 92, 203)"
 d="M14.000,7.999 L7.999,7.999 L7.999,13.999 L5.999,13.999 L5.999,7.999 L-0.000,7.999 L-0.000,5.999 L5.999,5.999 L5.999,-0.001 L7.999,-0.001 L7.999,5.999 L14.000,5.999 L14.000,7.999 Z"/>
</svg>
